X:106
T: Frau von Weissenburg
N: Q0030C
O: Mitteleuropa, Oesterreich, Niederoesterreich, Deutsch - Altenburg
R: Ballade, Ehebruch, Mord, Moral
M: 6/8
L: 1/16
K: E
B,2 | E4E2B,4B,2 | F6B,4
B,2 | F4FFF2E2F2 | G6z4
G2 | A2B2c2F2G2A2 | G2A2B2E2F2
G2 | F2G2A2B,2C2D2 | E4G2B4
G2 | A2B2c2F2G2A2 | G2A2B2E2F2
G2 | F2G2A2B,2C2D2 | E6z4

@@@ Tune index: 735
